!!!!SEGMENT: pl-wnifc--6730-n--001-024_sowinski-wojciech--chants-religieux-de-la-pologne-op-93-saint-jean-de-kenty-in-clytum-regnicolumen-poloni.krn
!!!cenid: 18xx:4038
!!!COM: Sowiński, Wojciech
!!!COM-rismID: pe30008543
!!!CDT: ~1803-1880/03/05
!!!CNT:
!!!GTL: Chants religieux de la Pologne op. 93
!!!OTL: Saint Jean de Kenty/In clytum regnicolumen poloni
!!!OMV: 024
!!!PDT: 1830
!!!AGN:
!!!SMS-siglum: PL-Wnifc
!!!SMS-shelfmark: 6730/n
!!!SMS-shelfwork: 001-024 G
!!!SMS-variant:
!!!SMS-altvar:
!!!NIFC-rismSourceID: 1001138221
!!!NIFC-rismChildID: 1001138248
!!!NIFC-islandoraID: nifc:213350
!!!URL-pdf-islandora: https://repozytorium.nifc.pl/islandora/object/nifc%3A213350/datastream/PDF/view
!!!URL-scan: https://polish.musicsources.pl/pl/lokalizacje/galeria/druki-muzyczne/16913 @EN{Scan on Polish Music Sources Website} @PL{Skany w portalu Dziedzictwo Muzyki Polskiej w otwartym dostępie}
!!!IIIF:
!!!ONB-nifc: UWAGA: str. 95-98
!!!AIN: 1 calto 2 organ 2 soprn
!!!key: g
**kern	**kern	**dynam	**kern	**text	**dynam	**kern	**text	**dynam	**kern	**text	**dynam
*part5	*part4	*part4	*part3	*part3	*part3	*part2	*part2	*part2	*part1	*part1	*part1
*staff5	*staff4	*	*staff3	*staff3	*	*staff2	*staff2	*	*staff1	*staff1	*
*I"Organo	*I"ORGUE.	*	*I"CONTRALTO.	*	*	*I"2.d DESSUS.	*	*	*I"1.er DESSUS.	*	*
*	*I'org	*	*I'Contra-A	*	*	*I'S 2	*	*	*I'S 1	*	*
*Iorgan	*Iorgan	*	*Icalto	*	*	*Isoprn	*	*	*Isoprn	*	*
*ICklav	*ICklav	*	*ICvox	*	*	*ICvox	*	*	*ICvox	*	*
*clefF4	*clefG2	*	*clefG2	*	*	*clefG2	*	*	*clefG2	*	*
*k[]	*k[]	*	*k[]	*	*	*k[]	*	*	*k[]	*	*
*g:	*g:	*	*g:	*	*	*g:	*	*	*g:	*	*
*M4/4	*M4/4	*	*M4/4	*	*	*M4/4	*	*	*M4/4	*	*
*met(c)	*met(c)	*	*met(c)	*	*	*met(c)	*	*	*met(c)	*	*
=1	=1	=1	=1	=1	=1	=1	=1	=1	=1	=1	=1
*	*^	*	*	*	*	*	*	*	*	*	*
!	!	!	!	!	!	!	!	!	!	!LO:TX:a:B:t=Poco andante.	!	!
!	!LO:TX:a:B:t=Poco andante.	!	!	!	!	!	!	!	!	!	!	!
4C\	2cc\	2e\	.	1r	.	.	1r	.	.	1r	.	.
4E\	.	.	.	.	.	.	.	.	.	.	.	.
4G\	4g/	2d\	.	.	.	.	.	.	.	.	.	.
4G#X\	4f/	.	.	.	.	.	.	.	.	.	.	.
=2	=2	=2	=2	=2	=2	=2	=2	=2	=2	=2	=2	=2
4A\	4e/	4c\	.	1r	.	.	1r	.	.	1r	.	.
4F#X\	4a/	4c\ 4e-X	.	.	.	.	.	.	.	.	.	.
4G\	2d\ 2g	2B\	.	.	.	.	.	.	.	.	.	.
4Fn\	.	.	.	.	.	.	.	.	.	.	.	.
*	*v	*v	*	*	*	*	*	*	*	*	*	*
=3	=3	=3	=3	=3	=3	=3	=3	=3	=3	=3	=3
4E\	4c\ 4g 4cc	.	1r	.	.	1r	.	.	1r	.	.
4C\	4en\ 4g 4ee	.	.	.	.	.	.	.	.	.	.
4D\	4f\ 4g 4dd	.	.	.	.	.	.	.	.	.	.
8E\L	4e\ 4g 4cc	.	.	.	.	.	.	.	.	.	.
8F\J	.	.	.	.	.	.	.	.	.	.	.
=4	=4	=4	=4	=4	=4	=4	=4	=4	=4	=4	=4
*	*^	*	*	*	*	*	*	*	*	*	*
(2GG\ 2G	2b/ 2dd	4d\ 4g	.	1r	.	.	1r	.	.	1r	.	.
.	.	4f\	.	.	.	.	.	.	.	.	.	.
4C\) 4G	4cc/	4e\	.	.	.	.	.	.	.	.	.	.
4r	4r	4ryy	.	.	.	.	.	.	.	.	.	.
*	*v	*v	*	*	*	*	*	*	*	*	*	*
=5	=5	=5	=5	=5	=5	=5	=5	=5	=5	=5	=5
!	!	!	!	!	!	!	!	!LO:DY:a	!	!	!LO:DY:a
2CC/ 2C	2e\ 2cc	f	1r	.	.	2e/	In	f	2cc\	In	f
4CC/ 4C	4e/ 4g	.	.	.	.	4e/	cly-	.	4g/	cly-	.
4CC/ 4C	4d/ 4f	.	.	.	.	4d/	-tum	.	4f/	-tum	.
!LO:LB:g=original	!LO:LB:g=original	!	!LO:LB:g=original	!	!	!LO:LB:g=original	!	!	!LO:LB:g=original	!	!
=6	=6	=6	=6	=6	=6	=6	=6	=6	=6	=6	=6
4CC/ 4C	4c/ 4e	<	1r	.	.	(>4c/	re-	.	(>4e/	re-	.
4C\ 4c	4f/ 4a	.	.	.	.	4f/)	.	.	4a/)	.	.
2C\ 2c	2e/ 2g	[	.	.	.	2e/	-gni	.	2g/	-gni	.
=7	=7	=7	=7	=7	=7	=7	=7	=7	=7	=7	=7
!	!	!	!	!	!LO:DY:a	!	!	!	!	!	!
4CC/ 4C	4e\ 4cc	.	4e/	co-	f	4g/	co-	.	4cc\	co-	.
4C\ 4c	4g\ 4ee	.	4g/	-lu-	.	4cc\	-lu-	.	4ee\	-lu-	.
4C\ 4c	4f\ 4dd	.	4f/	-men	.	4b\	-men	.	4dd\	-men	.
4C\ 4c	4e\ 4cc	.	4e/	po-	.	4cc\	po-	.	4cc\	po-	.
=8	=8	=8	=8	=8	=8	=8	=8	=8	=8	=8	=8
*	*^	*	*	*	*	*	*	*	*	*	*
2GG\ 2G	4b/	2f\ 2g	>	(>4g/	-lo-	.	2g/	-lo-	.	(4b\	-lo-	.
.	4dd/	.	.	4f/)	.	.	.	.	.	4dd\)	.	.
2C\ 2c	2cc/	2ryy	]	2e/	-ni	.	2g/	-ni	.	2cc\	-ni	.
*	*v	*v	*	*	*	*	*	*	*	*	*	*
=9	=9	=9	=9	=9	=9	=9	=9	=9	=9	=9	=9
!	!	!	!	!	!LO:DY:a	!	!	!	!	!	!
2CC/ 2C	2e\ 2cc	f	2c/	Ma-	<	2e/	Ma-	.	2cc\	Ma-	.
4C\ 4c	4e/ 4g	.	4e/	-gne	.	4e/	-gne	.	4g/	-gne	.
4C\ 4c	4d/ 4f	.	4g/	Doc-	[[	4d/	Doc-	.	4f/	Doc-	.
=10	=10	=10	=10	=10	=10	=10	=10	=10	=10	=10	=10
4CC/ 4C	4c/ 4e	.	(4cc\	-to-	.	(4e/	-to-	.	(4e/	-to-	.
4C\ 4c	4f/ 4a	.	4c/)	.	.	4f/)	.	.	4a/)	.	.
2C\ 2c	2e/ 2g	.	2c/	-rum	.	2e/	-rum	.	2g/	-rum	.
!LO:PB:g=original	!LO:PB:g=original	!	!LO:PB:g=original	!	!	!LO:PB:g=original	!	!	!LO:PB:g=original	!	!
=11	=11	=11	=11	=11	=11	=11	=11	=11	=11	=11	=11
4C\ 4c	4e/ 4cc	<	4c/	Pa-	.	4e/	Pa-	.	4cc\	Pa-	.
4C\ 4c	4g/ 4ee	.	4c/	-ter	.	4g/	-ter	.	4ee\	-ter	.
4C\ 4c	4f/ 4dd	[ >	4f/	al-	.	4g/	al-	.	4dd\	al-	.
4C\ 4c	4e/ 4cc	]]	4e/	-me	.	4g/	-me	.	4cc\	-me	.
=12	=12	=12	=12	=12	=12	=12	=12	=12	=12	=12	=12
*	*^	*	*	*	*	*	*	*	*	*	*
2G\	(4b/	2f\ 2g	.	(>4d/	Can-	.	2f/	Can-	.	(4b\	Can-	.
.	4dd/)	.	.	4B/)	.	.	.	.	.	4dd\)	.	.
2C\ 2c	2cc/	2ryy	.	2c/	-ti	.	2e/	-ti	.	2cc\	-ti	.
*	*v	*v	*	*	*	*	*	*	*	*	*	*
=13||	=13||	=13||	=13||	=13||	=13||	=13||	=13||	=13||	=13||	=13||	=13||
!	!	!	!	!	!LO:DY:a	!	!	!LO:DY:a	!	!	!LO:DY:a
2CC/ 2C	2g\ 2cc 2ee	f	2c/	Le-	f	2cc\	Le-	f	2ee\	Le-	f
4C\ 4c	4g\ 4cc 4ee	.	4g/	-chi-	.	4cc\	-chi-	.	4ee\	-chi-	.
4C\ 4c	4g\ 4ee 4gg	.	4e/	-cos	.	4cc\	-cos	.	4gg\	-cos	.
=14	=14	=14	=14	=14	=14	=14	=14	=14	=14	=14	=14
4GG\ 4G	(4b\ 4gg	.	(>4d/	in-	.	(4b\	in-	.	(4gg\	in-	.
4r	4dd\) 4ff	.	4g/)	.	.	4dd\)	.	.	4ff\)	.	.
4G\ 4B	2dd\ 2ff	sf	2g/	-ter	.	2dd\	-ter	.	2ff\	-ter	.
4r	.	.	.	.	.	.	.	.	.	.	.
=15	=15	=15	=15	=15	=15	=15	=15	=15	=15	=15	=15
!	!	!	!	!	!LO:DY:a	!	!	!LO:DY:a	!	!	!LO:DY:a
4GG\ 4G	4g\ 4dd	.	4g/	ra-	<	4b\	ra-	<	4dd\	ra-	<
(8G\L 8B	4g\ 4dd	<	4g/	-di-	.	4b\	-di-	.	4dd\	-di-	.
8A\J 8c	.	.	.	.	.	.	.	.	.	.	.
4B\) 4d	4g\ 4dd	.	4g/	-ans	.	4b\	-ans	.	4dd\	-ans	.
4G\ 4B	4dd\ 4ff	[[	4g/	Pa-	[[	4dd\	Pa-	[[	4ff\	Pa-	[[
!LO:LB:g=original	!LO:LB:g=original	!	!LO:LB:g=original	!	!	!LO:LB:g=original	!	!	!LO:LB:g=original	!	!
=16	=16	=16	=16	=16	=16	=16	=16	=16	=16	=16	=16
(4G#X\ 4B	(4dd\ 4ff	>	(4g#X/	-tro-	.	(4dd\	-tro-	.	(4ff\	-tro-	.
4A\) 4c	4cc\) 4ee	.	4a/)	.	.	4cc\)	.	.	4ee\)	.	.
4A\ 4c	2cc\ 2ee	]]	2a/	-nem	.	2cc\	-nem	.	2ee\	-nem	.
(8Gn\L	.	.	.	.	.	.	.	.	.	.	.
8F\J)	.	.	.	.	.	.	.	.	.	.	.
=17	=17	=17	=17	=17	=17	=17	=17	=17	=17	=17	=17
2EE/ 2E	2g\ 2cc 2gg	sf >	2e^>/	Po-	.	2cc^\	Po-	.	2gg^\	Po-	.
4DD/ 4D	4g\ 4cc 4ff	]	4d/	-soe	.	4cc\	-soe	.	4ff\	-soe	.
4CC/ 4C	4g\ 4cc 4ee	.	4c/	to-	.	4cc\	to-	.	4ee\	to-	.
=18	=18	=18	=18	=18	=18	=18	=18	=18	=18	=18	=18
*	*^	*	*	*	*	*	*	*	*	*	*
!	!	!	!	!	!	!	!	!	!	!LO:TX:a:B:t=Lento	!	!
!	!LO:TX:b:B:t=più lento.	!	!	!	!	!	!	!	!	!LO:TX:a:B:t=più lento.	!	!
2GG\ 2G	2dd/	4g\	.	2B/	-nan-	.	(4g/	-nan-	.	2dd\	-nan-	.
.	.	4f\	.	.	.	.	4f/)	.	.	.	.	.
2C;\ 2c	2cc;/	2e/	.	2c;/	-tem	.	2e;/	-tem	.	2cc;\	-tem	.
*	*v	*v	*	*	*	*	*	*	*	*	*	*
=19||	=19||	=19||	=19||	=19||	=19||	=19||	=19||	=19||	=19||	=19||	=19||
!	!LO:TX:b:B:t=a tempo.	!	!	!	!	!	!	!	!LO:TX:a:B:t=Andante	!	!
2AA\ 2A	2f^<\ 2cc 2ff	.	1r	.	.	1r	.	.	1r	.	.
4GG\ 4G	4b\ 4ee	.	.	.	.	.	.	.	.	.	.
4FF\ 4F	4a\ 4dd	.	.	.	.	.	.	.	.	.	.
=20	=20	=20	=20	=20	=20	=20	=20	=20	=20	=20	=20
*	*^	*	*	*	*	*	*	*	*	*	*
2EE\ 2E	2cc#X/	4a\	.	1r	.	.	1r	.	.	1r	.	.
.	.	4g\	.	.	.	.	.	.	.	.	.	.
4DD\ 4D	2dd/	2f\	.	.	.	.	.	.	.	.	.	.
4C\	.	.	.	.	.	.	.	.	.	.	.	.
=21	=21	=21	=21	=21	=21	=21	=21	=21	=21	=21	=21	=21
4BB\	2dd/ 2ff	2g\	.	1r	.	.	1r	.	.	1r	.	.
4GG\	.	.	.	.	.	.	.	.	.	.	.	.
4AA\	4ee/	4cc\	.	.	.	.	.	.	.	.	.	.
4BB\	4dd/	4g\	.	.	.	.	.	.	.	.	.	.
!LO:LB:g=original	!LO:LB:g=original	!LO:LB:g=original	!	!LO:LB:g=original	!	!	!LO:LB:g=original	!	!	!LO:LB:g=original	!	!
=22	=22	=22	=22	=22	=22	=22	=22	=22	=22	=22	=22	=22
4GG\ 4G	2dd/	4g\	>	1r	.	.	1r	.	.	1r	.	.
8AA\L	.	4f\	]	.	.	.	.	.	.	.	.	.
8BB\J	.	.	.	.	.	.	.	.	.	.	.	.
4C\	4cc/	4e\	.	.	.	.	.	.	.	.	.	.
4r	4r	4ryy	.	.	.	.	.	.	.	.	.	.
*	*v	*v	*	*	*	*	*	*	*	*	*	*
=23||	=23||	=23||	=23||	=23||	=23||	=23||	=23||	=23||	=23||	=23||	=23||
!	!	!	!	!	!	!	!	!	!LO:TX:a:t=2.me STROPHE.	!	!
2CC/ 2C	2e/ 2cc	f	1r	.	.	2e/	So-	.	2cc\	So-	.
4CC/ 4C	4e/ 4g	.	.	.	.	4e/	-lis	.	4g/	-lis	.
4CC/ 4C	4d/ 4f	.	.	.	.	4d/	ut	.	4f/	ut	.
=24	=24	=24	=24	=24	=24	=24	=24	=24	=24	=24	=24
4CC/ 4C	4c/ 4e	<	1r	.	.	(4c/	cla-	.	(4e/	cla-	.
4C\ 4c	4f/ 4a	.	.	.	.	4f/)	.	.	4a/)	.	.
2C\ 2c	2e/ 2g	[	.	.	.	2e/	-ros	.	2g/	-ros	.
=25	=25	=25	=25	=25	=25	=25	=25	=25	=25	=25	=25
!	!	!	!	!	!LO:DY:a	!	!	!	!	!	!
4CC/ 4C	4e/ 4cc	.	4e/	ro-	<	4g/	ro-	.	4cc\	ro-	.
4C\ 4c	4g/ 4ee	.	4c/	-tat	.	4g/	-tat	.	4ee\	-tat	.
4C\ 4c	4f/ 4dd	.	4d/	or-	.	4g/	or-	.	4dd\	or-	.
4C\ 4c	4e/ 4cc	.	4e/	-bis	[[	4g/	-bis	.	4cc\	-bis	.
=26	=26	=26	=26	=26	=26	=26	=26	=26	=26	=26	=26
*	*^	*	*	*	*	*	*	*	*	*	*
2G\	(4b/	2f\ 2g	>	2f/	ig-	.	2g/	ig-	.	(4b\	ig-	.
.	4dd/)	.	.	.	.	.	.	.	.	4dd\)	.	.
2C\ 2c	2cc/	2ryy	]	2e/	-nes	.	2g/	-nes	.	2cc\	-nes	.
!LO:LB:g=original	!LO:LB:g=original	!LO:LB:g=original	!	!LO:LB:g=original	!	!	!LO:LB:g=original	!	!	!LO:LB:g=original	!	!
*	*v	*v	*	*	*	*	*	*	*	*	*	*
=27	=27	=27	=27	=27	=27	=27	=27	=27	=27	=27	=27
2CC/ 2C	2e/ 2cc	f	2c/	sic	.	2e/	sic	.	2cc\	sic	.
4C\ 4c	4e/ 4g	.	4e/	mi-	.	4e/	mi-	.	4g/	mi-	.
4C\ 4c	4d/ 4f	.	4g/	-cat	.	4d/	-cat	.	4f/	-cat	.
=28	=28	=28	=28	=28	=28	=28	=28	=28	=28	=28	=28
4CC/ 4C	4c/ 4e	.	4cc\	nos-	.	4e/	nos-	.	4e/	nos-	.
4C\ 4c	4f/ 4a	.	4c/	.	.	4f/	.	.	4a/	.	.
2C\ 2c	2e/ 2g	.	2c/	-tro	.	2e/	-tro	.	2g/	-tro	.
=29	=29	=29	=29	=29	=29	=29	=29	=29	=29	=29	=29
4C\ 4c	4e/ 4cc	<	4e/	tu-	.	4g/	tu-	.	4cc\	tu-	.
4C\ 4c	4g/ 4ee	.	4c/	-a	.	4g/	-a	.	4ee\	-a	.
4C\ 4c	4f/ 4dd	[ >	4d/	lux	.	4g/	lux	.	4dd\	lux	.
4C\ 4c	4e/ 4cc	]]	4e/	in	.	4g/	in	.	4cc\	in	.
=30	=30	=30	=30	=30	=30	=30	=30	=30	=30	=30	=30
*	*^	*	*	*	*	*	*	*	*	*	*
!	!	!	!	!	!	!LO:DY:a	!	!	!LO:DY:a	!	!	!LO:DY:a
2G\	(4b/	2f\ 2g	.	2f/	or-	>	2g/	or-	>	(4b\	or-	>
.	4dd/)	.	.	.	.	.	.	.	.	4dd\)	.	.
2C\ 2c	2cc/	2ryy	.	2e/	-be	]]	2cc\	-be	]]	2cc\	-be	]]
*	*v	*v	*	*	*	*	*	*	*	*	*	*
=31||	=31||	=31||	=31||	=31||	=31||	=31||	=31||	=31||	=31||	=31||	=31||
!	!	!	!	!	!LO:DY:a	!	!	!LO:DY:a	!	!	!LO:DY:a
2CC/ 2C	2g\ 2cc 2ee	f	2c/	Noc-	f	2cc\	Noc-	f	2ee\	Noc-	f
4C\ 4c	4g\ 4cc 4ee	.	4g/	-tis	.	4cc\	-tis	.	4ee\	-tis	.
4C\ 4c	4g\ 4ee 4gg	.	4e/	ut	.	4cc\	ut	.	4gg\	ut	.
!LO:LB:g=original	!LO:LB:g=original	!	!LO:LB:g=original	!	!	!LO:LB:g=original	!	!	!LO:LB:g=original	!	!
=32	=32	=32	=32	=32	=32	=32	=32	=32	=32	=32	=32
4GG\ 4G	(4b\ 4gg	.	(4d/	Prin-	.	(4b\	Prin-	.	(4gg\	Prin-	.
4r	4dd\) 4ff	.	4g/)	.	.	4dd\)	.	.	4ff\)	.	.
4G\ 4B	2dd\ 2ff	sf	2g/	-ceps	.	2dd\	-ceps	.	2ff\	-ceps	.
4r	.	.	.	.	.	.	.	.	.	.	.
=33	=33	=33	=33	=33	=33	=33	=33	=33	=33	=33	=33
4GG/ 4G	4g\ 4dd	.	4g/	su-	.	4b\	su-	.	4dd\	su-	.
(8G\L 8B	4g\ 4dd	<	4g/	-pe-	.	4b\	-pe-	.	4dd\	-pe-	.
8A\J) 8c	.	.	.	.	.	.	.	.	.	.	.
4B\ 4d	4g\ 4dd	.	4g/	-rat	.	4b\	-rat	.	4dd\	-rat	.
4G\ 4B	4dd\ 4ff	[[	4g/	mi-	.	4dd\	mi-	.	4ff\	mi-	.
=34	=34	=34	=34	=34	=34	=34	=34	=34	=34	=34	=34
(4G#X\ 4B	(4dd\ 4ff	>	(4g#X/	-no-	.	(4dd\	-no-	.	(4ff\	-no-	.
4A\) 4c	4cc\) 4ee	.	4a/)	.	.	4cc\)	.	.	4ee\)	.	.
!	!	!	!	!	!LO:DY:a	!	!	!LO:DY:a	!	!	!LO:DY:a
4A\ 4c	2cc\ 2ee	]]	2a/	-res	p	2cc\	-res	p	2ee\	-res	p
(8Gn\L	.	.	.	.	.	.	.	.	.	.	.
8F\J)	.	.	.	.	.	.	.	.	.	.	.
=35	=35	=35	=35	=35	=35	=35	=35	=35	=35	=35	=35
!	!	!	!	!	!LO:DY:a	!	!	!LO:DY:a	!	!	!LO:DY:a
2EE/ 2E	2g^<\ 2cc 2gg	sf	2e^>/	Cyn-	f	2cc^\	Cyn-	f	2gg^\	Cyn-	f
!	!	!	!	!	!	!	!	!	!LO:TX:a:B:t=Lento	!	!
!	!LO:TX:b:i:t=marcato.	!	!	!	!	!	!	!	!LO:TX:a:B:t=più lento.	!	!
4FF/ 4F	4g\ 4cc 4ff	.	4f/	-thi-	.	4cc\	-thi-	.	4ff\	-thi-	.
4FF#X/ 4F#X	4g\ 4cc 4ee	.	4f#X/	-a	.	4cc\	-a	.	4ee\	-a	.
=36	=36	=36	=36	=36	=36	=36	=36	=36	=36	=36	=36
*	*^	*	*	*	*	*	*	*	*	*	*
2GG\ 2G	2b/ 2dd	4g\	.	4g/	flam-	.	2b\	flam-	.	2dd\	flam-	.
.	.	4f\	.	4fn/	.	.	.	.	.	.	.	.
2C;<\ 2c	2cc;/	2e\	.	2e;/	-mas	.	2cc;\	-mas	.	2cc;\	-mas	.
!LO:LB:g=original	!LO:LB:g=original	!LO:LB:g=original	!	!LO:LB:g=original	!	!	!LO:LB:g=original	!	!	!LO:LB:g=original	!	!
*	*v	*v	*	*	*	*	*	*	*	*	*	*
==37	==37	==37	==37	==37	==37	==37	==37	==37	==37	==37	==37
!	!	!	!	!	!	!	!	!	!LO:TX:t=P:problem:zapomniane a tempo.	!	!
4GG\ 4G	4b\ 4gg	.	1r	.	.	1r	.	.	1r	.	.
4AA\ 4A	4a\ 4ff#X	.	.	.	.	.	.	.	.	.	.
4BB\ 4B	4g\ 4ffn	.	.	.	.	.	.	.	.	.	.
4GG/ 4G	4g\ 4dd	.	.	.	.	.	.	.	.	.	.
=38	=38	=38	=38	=38	=38	=38	=38	=38	=38	=38	=38
2GG/ 2G	4g/ 4b	.	1r	.	.	1r	.	.	1r	.	.
.	4f/ 4dd	.	.	.	.	.	.	.	.	.	.
2C\ 2c	2e/ 2cc	.	.	.	.	.	.	.	.	.	.
=39||	=39||	=39||	=39||	=39||	=39||	=39||	=39||	=39||	=39||	=39||	=39||
!	!	!	!	!	!LO:DY:a	!	!	!LO:DY:a	!LO:TX:a:t=3.e STROPHE.	!	!LO:DY:a
2CC/ 2C	2e/ 2cc	f	2c/	Gran-	f	2e/	Gran-	f	2cc\	Gran-	f
4CC/ 4C	4e/ 4g	.	4e/	-de	.	4g/	-de	.	4g/	-de	.
4CC/ 4C	4d/ 4f	.	4d/	vir-	.	4g/	vir-	.	4f/	vir-	.
=40	=40	=40	=40	=40	=40	=40	=40	=40	=40	=40	=40
4CC/ 4C	4c/ 4e	<	2c/	-tu-	.	(4g/	-tu-	.	(4e/	-tu-	.
4C\ 4c	4f/ 4a	.	.	.	.	4f/)	.	.	4a/)	.	.
2C\ 2c	2e/ 2g	[	2c/	-tum	.	2e/	-tum	.	2g/	-tum	.
=41	=41	=41	=41	=41	=41	=41	=41	=41	=41	=41	=41
4CC/ 4C	4e\ 4cc	.	4e/	te-	.	4e/	te-	.	4cc\	te-	.
4C\ 4c	4g\ 4ee	.	4g/	-ne-	.	4cc\	-ne-	.	4ee\	-ne-	.
4C\ 4c	4f\ 4dd	.	4f/	-ris	.	4b\	-ris	.	4dd\	-ris	.
4C\ 4c	4e\ 4cc	.	4e/	ab	.	4cc\	ab	.	4cc\	ab	.
=42	=42	=42	=42	=42	=42	=42	=42	=42	=42	=42	=42
*	*^	*	*	*	*	*	*	*	*	*	*
2G\	(4b/	2f\ 2g	>	(4d/	an-	.	(4g/	an-	.	(4b\	an-	.
.	4dd/)	.	.	4B/)	.	.	4f/)	.	.	4dd\)	.	.
2C\ 2c	2cc\	2ryy	]	2c/	-nis	.	2e/	-nis	.	2cc\	-nis	.
!LO:PB:g=original	!LO:PB:g=original	!LO:PB:g=original	!	!LO:PB:g=original	!	!	!LO:PB:g=original	!	!	!LO:PB:g=original	!	!
*	*v	*v	*	*	*	*	*	*	*	*	*	*
=43	=43	=43	=43	=43	=43	=43	=43	=43	=43	=43	=43
2CC/ 2C	2e\ 2cc	f	2e/	te	.	2g/	te	.	2cc\	te	.
4C\ 4c	4e/ 4g	.	4e/	ju-	.	4g/	ju-	.	4cc\	ju-	.
4C\ 4c	4d/ 4f	.	4d/	-bar	.	4f/	-bar	.	4b\	-bar	.
=44	=44	=44	=44	=44	=44	=44	=44	=44	=44	=44	=44
4CC/ 4C	4c/ 4e	.	(4c/	cin-	.	(4e/	cin-	.	2cc\	cin-	.
4C\ 4c	4f/ 4a	.	4f/)	.	.	4a/)	.	.	.	.	.
2C\ 2c	2e/ 2g	.	2e/	-xit	.	2g/	-xit	.	2cc\	-xit	.
=45	=45	=45	=45	=45	=45	=45	=45	=45	=45	=45	=45
4C\ 4c	4e/ 4cc	<	4e/	ni-	.	4g/	ni-	.	4cc\	ni-	.
4C\ 4c	4g/ 4ee	.	4g/	-ve-	.	4g/	-ve-	.	4ee\	-ve-	.
4C\ 4c	4f/ 4dd	[ >	4f/	-i	.	4g/	-i	.	4dd\	-i	.
4C\ 4c	4e/ 4cc	]]	4e/	que	.	4g/	que	.	4cc\	que	.
=46	=46	=46	=46	=46	=46	=46	=46	=46	=46	=46	=46
*	*^	*	*	*	*	*	*	*	*	*	*
2G\	(4b/	2f\ 2g	.	(4g/	do-	.	2g^>/	do-	.	(4b\	do-	.
.	4dd/)	.	.	4f/)	.	.	.	.	.	4dd\)	.	.
2C\ 2c	2cc\	2ryy	.	2e/	-tes	.	2cc\	-tes	.	2cc\	-tes	.
*	*v	*v	*	*	*	*	*	*	*	*	*	*
=47||	=47||	=47||	=47||	=47||	=47||	=47||	=47||	=47||	=47||	=47||	=47||
!	!	!	!	!	!LO:DY:a	!	!	!LO:DY:a	!	!	!LO:DY:a
2CC/ 2C	2g\ 2cc 2ee	f	4cc\	Pec-	f	2cc\	Pec-	f	2ee\	Pec-	f
.	.	.	4r	.	.	.	.	.	.	.	.
4C\ 4c	4g\ 4cc 4ee	.	4cc\	-to-	.	4cc\	-to-	.	4ee\	-to-	.
4C\ 4c	4g\ 4ee 4gg	.	4cc\	-ris	.	4ee\	-ris	.	4gg\	-ris	.
!LO:LB:g=original	!LO:LB:g=original	!	!LO:LB:g=original	!	!	!LO:LB:g=original	!	!	!LO:LB:g=original	!	!
=48	=48	=48	=48	=48	=48	=48	=48	=48	=48	=48	=48
4GG\ 4G	(4b\ 4gg	.	2b\	de-	.	2dd\	de-	.	(4gg\	de-	.
4r	4dd\) 4ff	.	.	.	.	.	.	.	4ff\)	.	.
4G\ 4B	2dd\ 2ff	.	2b\	-vo-	.	2dd\	-vo-	.	2ff\	-vo-	.
4r	.	.	.	.	.	.	.	.	.	.	.
=49	=49	=49	=49	=49	=49	=49	=49	=49	=49	=49	=49
4GG/ 4G	4g\ 4dd	<	4b/	-tu	.	4b\	-tu	.	4dd\	-tu	.
!	!	!	!LO:TX:t=P:problem:SIC:?	!	!	!	!	!	!	!	!
(8G\L 8B	4g\ 4dd	.	4a-X/	que	.	4b\	que	.	4dd\	que	.
8A\J) 8c	.	.	.	.	.	.	.	.	.	.	.
4B\ 4d	4g\ 4dd	.	4g/	mens	.	4b\	mens	.	4dd\	mens	.
4G\ 4B	4dd\ 4ff	[[	4b/	pro-	.	4dd\	pro-	.	4ff\	pro-	.
=50	=50	=50	=50	=50	=50	=50	=50	=50	=50	=50	=50
(4G#X\ 4B	(4dd\ 4ff	>	(4b\	-fun-	.	(4dd\	-fun-	.	(4ff\	-fun-	.
4A\) 4c	4cc\) 4ee	.	4cc\)	.	.	4cc\)	.	.	4ee\)	.	.
4A\ 4c	2cc\ 2ee	]]	2cc\	-do	.	2cc\	-do	.	2ee\	-do	.
(8Gn\L	.	.	.	.	.	.	.	.	.	.	.
8F\J)	.	.	.	.	.	.	.	.	.	.	.
=51	=51	=51	=51	=51	=51	=51	=51	=51	=51	=51	=51
!	!	!	!	!	!LO:DY:a	!	!	!LO:DY:a	!	!	!LO:DY:a
2EE/ 2E	2g^<\ 2cc 2gg	sf	2e/	nu-	f	2cc\	nu-	f	2gg\	nu-	f
4DD/ 4D	4g\ 4cc 4ff	.	4d/	-mi-	.	4cc\	-mi-	.	4ff\	-mi-	.
4CC/ 4C	4g\ 4cc 4ee	.	4c/	-ne	.	4cc\	-ne	.	4ee\	-ne	.
=52	=52	=52	=52	=52	=52	=52	=52	=52	=52	=52	=52
*	*^	*	*	*	*	*	*	*	*	*	*
!	!LO:TX:b:B:t=Più lento.	!	!	!	!	!	!	!	!	!LO:TX:a:B:t=Lento	!	!
2GG\ 2G	2b/ 2dd	(4g\	.	2B/	mer-	.	(4g^>/	mer-	.	2dd^\	mer-	.
.	.	4f\)	.	.	.	.	4f^>/)	.	.	.	.	.
2C;\ 2c	2cc;/	2e\	.	2c/	-sa	.	2e/	-sa	.	2cc^\	-sa	.
*	*v	*v	*	*	*	*	*	*	*	*	*	*
==	==	==	==	==	==	==	==	==	==	==	==
*-	*-	*-	*-	*-	*-	*-	*-	*-	*-	*-	*-
!!!RDF**kern: > = above
!!!RDF**kern: < = below
!!!system-decoration: [(s1,s2,s3)][(s4,s5)]
!!!ENC: Filip Voros
!!!END: 2022-08-11
!!!ENC: Julita Ruszuk
!!!END: 2022-09-13
!!!YEC: Copyright 2022 Narodowy Instytut Fryderyka Chopina (https://polishscores.org)
!!!YEM: License CC-BY-4.0 (https://creativecommons.org/licenses/by/4.0)
